svg/u1fa9b.svg

<svg viewBox="0 0 128 128" xmlns="http://www.w3.org/2000/svg">
  <defs/>
  <path d="M119.06,116.56 C128.48,106.42 121.93,99.05 119.82,96.94 C101.32,78.44 97.48,74.56 91.96,69.04 C87.29,64.37 81.91,65.18 79.69,62.97 C77.47,60.75 80.38,56.65 76.42,52.68 C72.36,48.62 69.06,50.71 69.06,50.71 C69.06,50.71 65.5,53.74 61.78,57.52 L61.78,57.52 C57.48,61.69 51.62,68.06 51.62,68.06 C51.62,68.06 49.56,71.42 53.62,75.48 C57.48,79.34 61.69,76.53 63.91,78.75 C66.13,80.97 65.31,86.35 69.98,91.02 C75.5,96.54 79.38,100.38 97.88,118.88 C100.01,121.01 107.51,127.68 117.81,117.83 L119.06,116.56 Z" fill="#F44336"/>
  <path d="M72.548,50.621 C74.356,52.429 71.121,58.596 65.321,64.395 C59.522,70.194 53.355,73.43 51.547,71.622 C49.739,69.814 52.974,63.647 58.774,57.847 C64.573,52.048 70.74,48.813 72.548,50.621 Z" fill="#FF7555"/>
  <path d="M112.08,113.59 C112.73,113.59 113.39,113.34 113.89,112.84 C114.89,111.84 114.89,110.22 113.89,109.23 L86.04,81.38 C85.04,80.38 83.42,80.38 82.43,81.38 C81.43,82.38 81.43,84 82.43,84.99 L110.28,112.84 C110.77,113.34 111.42,113.59 112.08,113.59 Z" fill="#FF7555"/>
  <path d="M78.236,88.744 L104.646,115.154 Q106.092,116.6 104.646,118.046 Q103.2,119.492 101.754,118.046 L75.344,91.636 Q73.898,90.19 75.344,88.744 Q76.79,87.298 78.236,88.744 Z" fill="#C62828"/>
  <path d="M92.626,74.354 L119.036,100.764 Q120.482,102.21 119.036,103.656 Q117.59,105.102 116.144,103.656 L89.734,77.246 Q88.288,75.8 89.734,74.354 Q91.18,72.908 92.626,74.354 Z" fill="#FF7555"/>
  <path d="M77.68,68.25 C78.46,60.26 75.26,64.85 72.78,67.57 C63.52,77.71 58.61,77.7 58.61,77.7 C58.64,77.7 58.93,77.72 58.95,77.72 C61,77.93 62.72,77.58 63.9,78.76 C66.12,80.98 65.3,86.36 69.97,91.03 C70.58,91.64 71.05,92.11 71.44,92.5 C71.44,92.5 71.44,92.5 71.44,92.5 C68.51,83.51 76.71,78.11 77.68,68.25 Z" fill="#C62828"/>
  <path d="M9.19,5.94 L5.55,9.58 C4.96,10.17 5.22,10.87 5.76,11.49 L12.76,20.82 L21.06,29.12 L56.8,64.85 C56.8,64.85 59.37,64.49 62.05,61.81 C64.73,59.13 64.79,56.87 64.79,56.87 L29.61,21.68 L25.24,14.02 L11.37,5.51 C10.74,5.06 9.74,5.4 9.19,5.94 Z" fill="#94D1E0"/>
  <path d="M15.6,23.16 L7.3,11.93 L5.77,9.37 C4.92,10.03 4.97,11.48 5.5,12.09 L13.85,27.11 L21.91,29.97 L56.81,64.87 C56.81,64.87 57.85,64.72 59.29,63.93 L21.72,26.37 L15.6,23.16 Z" fill="#82AEC0"/>
  <path d="M7.05,10.1 L9.73,7.4 C10.29,6.79 10.88,6.9 11.33,7.23 L22.8,15.34 C22.95,15.44 23.28,15.69 23.36,15.85 L26.21,21.5 C26.23,21.59 21.77,26.44 21.73,26.36 L15.23,24.59 C15.12,24.54 15.01,24.47 14.92,24.39 L7.09,11.74 C6.68,11.11 6.59,10.55 7.05,10.1 Z" fill="#CAF4F9"/>
</svg>

<svg viewBox="0 0 128 128" xmlns="http://www.w3.org/2000/svg">
  <g>
    <g>
      <path d="M119.06,116.56c9.42-10.14,2.87-17.51,0.76-19.62c-18.5-18.5-22.34-22.38-27.86-27.9 c-4.67-4.67-10.05-3.86-12.27-6.07c-2.22-2.22,0.69-6.32-3.27-10.29c-4.06-4.06-7.36-1.97-7.36-1.97s-3.56,3.03-7.28,6.81l0,0 c-4.3,4.17-10.16,10.54-10.16,10.54s-2.06,3.36,2,7.42c3.86,3.86,8.07,1.05,10.29,3.27c2.22,2.22,1.4,7.6,6.07,12.27 c5.52,5.52,9.4,9.36,27.9,27.86c2.13,2.13,9.63,8.8,19.93-1.05L119.06,116.56z" fill="#F44336"/>
      <ellipse cx="62.05" cy="61.12" rx="14.85" ry="4.63" fill="#FF7555" transform="matrix(0.7071 -0.7071 0.7071 0.7071 -25.0461 61.7789)"/>
      <path d="M112.08,113.59c0.65,0,1.31-0.25,1.81-0.75c1-1,1-2.62,0-3.61L86.04,81.38c-1-1-2.62-1-3.61,0 c-1,1-1,2.62,0,3.61l27.85,27.85C110.77,113.34,111.42,113.59,112.08,113.59z" fill="#FF7555"/>
      <line fill="none" stroke="#C62828" stroke-width="4.0897" stroke-linecap="round" stroke-miterlimit="10" x1="76.79" x2="103.2" y1="90.19" y2="116.6"/>
      <line fill="none" stroke="#FF7555" stroke-width="4.0897" stroke-linecap="round" stroke-miterlimit="10" x1="91.18" x2="117.59" y1="75.8" y2="102.21"/>
      <path d="M77.68,68.25c0.78-7.99-2.42-3.4-4.9-0.68c-9.26,10.14-14.17,10.13-14.17,10.13 c0.03,0,0.32,0.02,0.34,0.02c2.05,0.21,3.77-0.14,4.95,1.04c2.22,2.22,1.4,7.6,6.07,12.27c0.61,0.61,1.08,1.08,1.47,1.47 c0,0,0,0,0,0C68.51,83.51,76.71,78.11,77.68,68.25z" fill="#C62828"/>
    </g>
    <g>
      <path d="M9.19,5.94L5.55,9.58c-0.59,0.59-0.33,1.29,0.21,1.91l7,9.33l8.3,8.3L56.8,64.85 c0,0,2.57-0.36,5.25-3.04s2.74-4.94,2.74-4.94L29.61,21.68l-4.37-7.66L11.37,5.51C10.74,5.06,9.74,5.4,9.19,5.94z" fill="#94D1E0"/>
      <path d="M15.6,23.16L7.3,11.93L5.77,9.37c-0.85,0.66-0.8,2.11-0.27,2.72l8.35,15.02l8.06,2.86l34.9,34.9 c0,0,1.04-0.15,2.48-0.94L21.72,26.37L15.6,23.16z" fill="#82AEC0"/>
      <path d="M7.05,10.1l2.68-2.7c0.56-0.61,1.15-0.5,1.6-0.17l11.47,8.11c0.15,0.1,0.48,0.35,0.56,0.51 l2.85,5.65c0.02,0.09-4.44,4.94-4.48,4.86l-6.5-1.77c-0.11-0.05-0.22-0.12-0.31-0.2L7.09,11.74C6.68,11.11,6.59,10.55,7.05,10.1z" fill="#CAF4F9"/>
    </g>
  </g>
</svg>
